X:477
T:Bal Limousine
A:Poitou
C:Trad
F:http://richardrobinson.tunebook.org.uk/tune/5774
L:1/8
M:3/4
O:France
Q:220
Z:Bernard Loffet
K:G
|:d2 e2 d2 | c2 A2 B2 | c2 d2 c2 | A2 B2 G2 | \
  A2 c2 B2 | AB AG DG | A2 B2 c2 | A2 B2 G2 | 
  d2 e2 d2 | c2 B2 A2 | c2 d2 c2 | A2 B2 G2 | \
  A2 c2 B2 | AB AG FG | A2 B2 A2 | G2 G,2 G,2 :|
|:A2 B2 G2 | AB AG FG | A2 B2 G2 | D2 E2 C2 | \
  A2 c2 B2 | AB AG FG | A2 B2 c2 | A2 D,2 D,2| 
  A2 B2 G2 | AB AG FG | A2 B2 G2 | D2 E2 C2 | \
  A2 c2 B2 | AB AG FG | A2 B2 A2 | G2 G,2 G,2 :|

